X:1
T:The Bluebell Polka
T:The Bluebell Polka
T:Frank Stanley
T:Paddy Roberts
%%score 1 { 2 | 3 } 4
L:1/8
Q:1/4=154
M:4/4
K:G
V:1 treble nm="Violin" snm="Vln."
V:2 treble nm="Accordion" snm="Acc."
V:3 bass 
V:4 perc nm="Drumset" snm="D. Set"
K:none
I:percmap F F 36 normal
I:percmap ^a a 49 x
I:percmap ^e e 46 x
I:percmap c c 38 normal
I:percmap e e 47 normal
V:1
"^Allegro" z2 |: z8 | z8 | z8 | z8 | z8 | z8 | z8 |1 z8 :|2 z8 || %10
[K:D]"^Roland FR4XVUPG6-01 Violin" .[FA]2 .A2 FAdf | .a2 .a2 [df]4 | a2 ^g2 =g2 e2 | [gb]2 a^g a4 | %14
 .[FA]2 .A2 FAdf | .a2 .a2 [df]4 | [ea]2 ^g2 =g2 e2 | d2 f2 [Ad]2 z2 |:[K:C] .[ce]2 .e2 ef g2 | %19
 .[ce]2 .e2 ef g2 | fefg fd B2 | fefg fd B2 | .[ce]2 .e2 ef g2 | .[ce]2 .e2 ef g2 | fefg fdBd |1 %25
 [Gc]2 e2 c2 z2 :|2 [Gc]2 e2 c2 z2 ||[K:G] z8 | z8 | z8 | z8 | z8 | z8 | z8 | z8 | z8 |] %36
V:2
 (3B"^Roland FR4XVUPG6-01 Accordion Solo"dg |: .b2 .b2 gfge | .d2 .d2 B2 G2 | FGAB c2 e2 | %4
w: 1.Pic- kin' a|blue- bell in the mer- ry|month of May, and|sud- den- ly I saw him|
w: |turned and smiled at me my|heart stood still. I|ne- ver knew a smile could|
 ed^cd B2 (3Bdg | .b2 .b2 gfge | .d2 .d2 B2 G2 | FGAB cdef |1 .g2 .g2 g2 (3Bdg :|2 .g2 .g2 g2 B2 || %10
w: stroll- ing on his way. Pick- in' a|blue- bell just the same as|I was too. I|thought I could be hap- py with a|boy like you. 2.And as he|blue- bell wood. *|
w: give me such a thrill. He was a|hand- some lad- die and he|looked so good, I|prom- ised I would meet him in the|||
[K:D] .[FA]2 .A2 FAdf | .a2 .a2 [df]4 | a2 ^g2 =g2 e2 | [gb]2 a^g a4 | .[FA]2 .A2 FAdf | %15
w: Half past sev- en by the|old oak tree,|I was wait- ing,|an- ti- ci- pating.|What would hap- pen to a|
w: |||||
 .a2 .a2 [df]4 | [ea]2 ^g2 =g2 e2 | d2 f2 [Ad]2 z2 |:[K:C] .[ce]2 .e2 ef g2 | .[ce]2 .e2 ef g2 | %20
w: girl like me,|when he came a-|long? * *|Looks so won- der- ful,|oh so won- der- ful.|
w: |||What was I to do?|Met my Wa- ter- loo?|
 fefg fd B2 | fefg fd B2 | .[ce]2 .e2 ef g2 | .[ce]2 .e2 ef g2 | fefg fdBd |1 [Gc]2 e2 c2 z2 :|2 %26
w: How was I to see that he'd|make a bloo- dy fool of me?|Twa dark flash- in' eyes,|looked like pa- ra- dise.|M- y heart it flick- ered like a|flame. * *|
w: The- re I- * stood for him.|Wait- ing in the wood for him!|My con- fe- ss- ion,|learned my le- ss- on.|I will ne- ver be the same a-||
 [Gc]2 e2 c2"^Roland FR4XVUPG6-01 Accordion Solo" (3Bdg ||[K:G] .b2 .b2 gfge | .d2 .d2 B2 G2 | %29
w: gain. * * Pic- kin' a|blue- bell in the mer- ry|month of May, is|
w: |||
 FGAB c2 e2 | ed^cd B2 (3Bdg | .b2 .b2 gfge | .d2 .d2 B2 G2 | FGAB cdef | .g2 .g2 .g2 z2 | G8 |] %36
w: some- thing I'll re- mem- ber|when I'm old and grey. And if I|live to nine- ty two I|know darn well I|ne- ver want to see a- noth- er|Scots blue- bell.||
w: |||||||
V:3
 z2 |:"_G" .G,,2"G" .[G,B,D]2"_D" .D,,2"G" .[G,B,D]2 | %2
"_G" .G,,2"G" .[G,B,D]2"_D" .D,,2"G" .[G,B,D]2 |"_D" .D,,2"D7" .[CDF]2"_-""_F#" .F,,2"D7" .[CDF]2 | %4
"_G" .G,,2"G" .[G,B,D]2"_D" .D,,2"D7" .[CDF]2 |"_G" .G,,2"G" .[G,B,D]2"_D" .D,,2"G" .[G,B,D]2 | %6
"_G" .G,,2"G" .[G,B,D]2"_D" .D,,2"G" .[G,B,D]2 | %7
"_D" .D,,2"D7" .[CDF]2"_-""_F#" .F,,2"D7" .[CDF]2 |1 %8
"_G" .G,,2"G" .[G,B,D]2"_D" .D,,2"G" .[G,B,D]2 :|2"_G" .G,,2"G" .[G,B,D]2"G/G" .[G,,G,B,D]2 z2 || %10
[K:D]"_D" .D,,2"D" .[DFA]2"_A" .A,,2"D" .[DFA]2 |"_D" .D,,2"D" .[DFA]2"_A" .A,,2"D" .[DFA]2 | %12
"_A" .A,,2"A7" .[G,A,C]2"_-""_C#" .C,,2"A7" .[G,A,C]2 | %13
"_D" .D,,2"D" .[DFA]2"_-""_C#" .C,,2"A7" .[G,A,C]2 |"_D" .D,,2"D" .[DFA]2"_A" .A,,2"D" .[DFA]2 | %15
"_D" .D,,2"D" .[DFA]2"_A" .A,,2"D" .[DFA]2 |"_A" .A,,2"A7" .[G,A,C]2"_-""_C#" .C,,2"A7" .[G,A,C]2 | %17
"_D" .D,,2"D" .[DFA]2"_-""_F#" .F,,2"D7" .[CDF]2 |: %18
[K:C]"_C" .C,,2"C" .[CEG]2"_G" .G,,2"C" .[CEG]2 |"_C" .C,,2"C" .[CEG]2"_G" .G,,2"C" .[CEG]2 | %20
"_G" .G,,2"G7" .[F,G,B,]2"_-""_B" .B,,2"G7" .[F,G,B,]2 | %21
"_G" .G,,2"G7" .[F,G,B,]2"_-""_B" .B,,2"G7" .[F,G,B,]2 | %22
"_C" .C,,2"C" .[CEG]2"_G" .G,,2"C" .[CEG]2 |"_C" .C,,2"C" .[CEG]2"_G" .G,,2"C" .[CEG]2 | %24
"_G" .G,,2"G7" .[F,G,B,]2"_-""_B" .B,,2"G7" .[F,G,B,]2 |1 %25
"_C" .C,,2"C" .[CEG]2"C/C" .[C,,CEG]2 z2 :|2"_C" .C,,2"C" .[CEG]2"C/C" .[C,,CEG]2 z2 || %27
[K:G]"_G" .G,,2"G" .[G,B,D]2"_D" .D,,2"G" .[G,B,D]2 | %28
"_G" .G,,2"G" .[G,B,D]2"_D" .D,,2"G" .[G,B,D]2 |"_D" .D,,2"D7" .[CDF]2"_-""_F#" .F,,2"D7" .[CDF]2 | %30
"_G" .G,,2"G" .[G,B,D]2"_D" .D,,2"D7" .[CDF]2 |"_G" .G,,2"G" .[G,B,D]2"_D" .D,,2"G" .[G,B,D]2 | %32
"_G" .G,,2"G" .[G,B,D]2"_D" .D,,2"G" .[G,B,D]2 |"_D" .D,,2"D7" .[CDF]2"_-""_F#" .F,,2"D7" .[CDF]2 | %34
"_G" .G,,2"G" .[G,B,D]2"_G" .[G,,G,B,D]2 z2 |"G/G" [G,,G,B,D]8 |] %36
V:4
[K:C] z2 |: F2 c2 (3ccc c2 | F2 c2 (3ccc c2 | F2 c2 (3ccc c2 | F2 c2 F2 ^e2 | F2 c2 (3ccc c2 | %6
 F2 c2 (3ccc c2 | F2 c2 (3ccc c2 |1 F2 c2 F2 ^e2 :|2 F2 c2 F2 ^a2 || (3ccc c2 (3ccc c2 | %11
 F2 c2 F2 (3ccc | (3ccc c2 (3ccc c2 | F2 c2 F2 (3ccc | (3ccc c2 (3ccc c2 | F2 c2 F2 (3ccc | %16
 (3ccc c2 (3ccc c2 | F2 c2 [F^e]2 z2 |: F2 c2 F2 (3eee | F2 c2 F2 (3eee | F2 c2 F2 (3eee | %21
 F2 c2 F2 ^e2 | F2 c2 F2 (3eee | F2 c2 F2 (3eee | F2 c2 F2 (3eee |1 F2 c2 F2 ^e2 :|2 %26
 F2 c2 F2 ^a2 || F2 c2 (3ccc c2 | F2 c2 (3ccc c2 | F2 c2 (3ccc c2 | F2 c2 F2 ^e2 | F2 c2 (3ccc c2 | %32
 F2 c2 (3ccc c2 | F2 c2 (3ccc c2 | F2 c2 F2 ^e2 | [F^e]2 ee c4 |] %36

